!!!OTL: ES WAR EINE STOLZE JUEDIN
!!!ARE: Europa, Mitteleuropa, Deutschland, Hildburghausen
!!!SCT: E0098D
!!!YEM: Copyright 1995, estate of Helmut Schaffrath.
**kern
*ICvox
*Ivox
*M4/4
*k[b-]
*F:
{4c
=1
4f
4a
4cc
4g
=2
4a
8g
8f
4f}
{4ff
=3
4.ee
8dd
4ee
4dd
=4
2cc
4r}
{4cc
=5
4cc
4a
4cc
4ff
=6
2dd
4dd}
{4dd
=7
4dd
4dd
8ff
8ee
4dd
=8
2cc
4a}
{4cc
=9
4cc
4a
4b-
4cc
=10
2a
4r}
==
!!!AGN: erzaehlendes Volks - Lied, Sage, Liebe, Leid, Ballade ?
!!!ONB: ESAC (Essen Associative Code) Database: ERK1
!!!AMT: simple quadruple
!!!AIN: vox
!!!EED: Helmut Schaffrath
!!!EEV: 1.0
*-
